lib/flags/l/760.svg

<svg xmlns="http://www.w3.org/2000/svg" fill="none" viewBox="0 0 32 24"><mask id="760_svg__a" width="32" height="24" x="0" y="0" mask-type="alpha" maskUnits="userSpaceOnUse"><path fill="#fff" d="M0 0H32V24H0z"/></mask><g fill-rule="evenodd" clip-rule="evenodd" mask="url(#760_svg__a)"><path fill="#F7FCFF" d="M0 0H32V24H0V0Z"/><path fill="#409100" d="M9.0012 13.2471 7.75408 14 8.03854 12.5308 7 11.4313 8.40624 11.3718 9.0012 10 9.59615 11.3718H11L9.96385 12.5308 10.2758 14 9.0012 13.2471zM23.0012 13.2471 21.7541 14 22.0385 12.5308 21 11.4313 22.4062 11.3718 23.0012 10 23.5961 11.3718H25L23.9639 12.5308 24.2758 14 23.0012 13.2471z"/><path fill="#E31D1C" d="M0 0V8H32V0H0Z"/><path fill="#272727" d="M0 16V24H32V16H0Z"/></g></svg>

<svg xmlns="http://www.w3.org/2000/svg" fill="none" viewBox="0 0 32 24"><mask id="760_svg__a" width="32" height="24" x="0" y="0" maskUnits="userSpaceOnUse"><path fill="#fff" d="M0 0h32v24H0z"/></mask><g fill-rule="evenodd" clip-rule="evenodd" mask="url(#760_svg__a)"><path fill="#F7FCFF" d="M0 0h32v24H0V0z"/><path fill="#409100" d="M9.001 13.247L7.754 14l.285-1.47L7 11.432l1.406-.06L9.001 10l.595 1.372H11L9.964 12.53l.312 1.47L9 13.247zm14 0L21.754 14l.284-1.47L21 11.432l1.406-.06.595-1.371.595 1.372H25l-1.036 1.159.312 1.469L23 13.247z"/><path fill="#E31D1C" d="M0 0v8h32V0H0z"/><path fill="#272727" d="M0 16v8h32v-8H0z"/></g></svg>
